X:1
T:Title
%%score ( 1 2 ) { 3 | 4 }
L:1/8
Q:1/4=90
M:4/4
K:Eb
V:1 treble nm="Grand Piano, Treble"
V:2 treble 
V:3 bass nm="Grand Piano, Bass"
V:4 bass 
V:1
 z4 z2 B,E | [EG][EG][EG][EG] [DF][DF][EG][DA] | z2 B4 z2 | [DF]2 B,2 [B,D][B,E][DF][EG] | A6 z2 | %5
w: 1.~My~ *|Je sus~ died~ for~ me~ up on~ the~|(on~|Him~ I've~ count ed~ all~ but~|loss~|
 [EG]2 [EG]2 [DF][DF]E[EG] | z2 B4 z2 | [DF]2 [DF]2 EE[DF][EG] | A6 z2 | %9
w: soul~ be held~ Him~ on~ the~|(on~|said~ His~ dy ing~ was~ for~|me~|
 [GB]2 [EG]2 [EB][EG][EA][EB] | c6 z2 | [GB]2 [EG]2 E[EF][DG][DF] | E6 z2 | %13
w: heart~ was~ cap tured~ by~ His~|love~|glo ry~ stream ing~ from~ a|bove.~|
 [GB]3 [Ac] [GB][EG][B,E][EG] | B6 z2 | [Ge]3 [Ac] [Ac][GB][EB][EG] | F6 z2 | %17
w: ||||
 [DF]2 [DB]2 [EG]2 [FA]2 | B2- [AB]2 B2 E[EF] | [EG]2 [GB]2 [FA]2 [DF]2 | E6 z2 |] %21
w: ||||
V:2
 x8 | x8 | [EB]2 z A G2 [FA][EG] | x8 | F2 FE D2 E[EF] | x8 | [EB]2 z A G2 [GB][EG] | x8 | %8
w: ||* the~ cross),~ * for~||* (all~ but~ loss);~ * my~||* the~ tree),~ * science~||
 F2 FE D2 [AB][AB] | x8 | E2 AA A2 [Ac][Ac] | x8 | x8 | x8 | GGAA G2 z2 | x8 | D2 DD D2 [B,D][CE] | %17
w: * (was~ for~ me):~ * my~||* (by~ His~ love),~ * with~|||||||
 x8 | G2 z2 z4 | x8 | x8 |] %21
w: ||||
V:3
 z4 z2 G,2 | B,B,B,B, B,B,B,B, | E2 ED E2 B,[K:bass]B, | B,2 A,2 A,G,B,B, | B,2 B,B, B,2 G,A, | %5
 B,2 B,2 B,A,G,B, | E2 ED E2 B,[K:bass]B, | B,2 B,2 G,G,B,B, | B,2 B,B, B,2[K:treble] DD | %9
 E2 B,2 G,[K:bass]B,A,G, | A,B,[K:treble]CD E2 EE | E2[K:bass] B,2 G,A,B,A, | G,6 z2 | %13
 E3 E EB,G,B, | EEDD E2 z2 | B,3 E EEB,[K:bass]B, | B,2 B,B, B,2 B,B, | B,2 B,2 B,2 B,2 | %18
 E2 D2 E2 B,C | B,2 B,2 B,2 A,2 | G,6 z2 |] %21
V:4
 z4 z2 E,2 | E,E,E,E, B,,B,,E,F, | G,2 G,F, E,2 D,E, | B,,2 B,,2 B,,B,,B,,B,, | %4
 B,,2 D,C, B,,2 E,E, | E,2 E,2 B,,B,,E,E, | G,2 G,F, E,2 E,E, | B,,2 B,,2 C,C,B,,B,, | %8
 B,,2 D,C, B,,2 B,,B,, | E,2 E,2 E,_D,C,B,, | A,,2 A,,A,, A,,2 A,,A,, | B,,2 B,,2 B,,B,,B,,B,, | %12
 E,6 z2 | E,3 E, E,E,E,E, | E,E,B,,B,, E,2 z2 | E,3 E, E,E,G,E, | B,,2 B,,B,, B,,2 B,,B,, | %17
 B,,2 B,,2 E,2 E,2 | E,2 F,2 G,2 G,A, | z4 B,,2 B,,2 | E,6 z2 |] %21

